X:1157
T:March 25th. Regt.
M:C
L:1/8
Q:1/2=66
I: :: ||
N:bar 12 is printed |e2 e>e (d/e/f)|
N:triplet signs not printed explicitly
N:upbeat rests added
Z:Jack Campin * www.campin.me.uk * 2009
K:G
z2|G2 G>A  B2 B>c|d2 G2 TA2 G2 |  c2    B2  e2  d2 |d3  c  B4        |
   A2 A>B ^c2 cd |e2 e>f g2 f>e|  fd    Be  d2 ^c2 |d2 d>d d2       :|
z2|A2 A>A  d2 d>d|B2 B>B e3  f |  g2    fe ^d>e`f>d|e2 e>e e2 (d/e/f)|
   g2 G>A  B2 B>c|d2 G2  A2 G2 |(3BAG (3edc B2 TA2 |G2 G>G G2       :|

